X:920
T:AVANT-DEUX A YANNICK
R:Avant deux
Z: YVES BELOTTEAU
Z: Yves BELOTTEAU
M:4/4
L:1/8
Q:1/4=120
K:G 
|d3/2c/2Bd cBA3/2 z/2 |B/2A/2B/2A/2GB B/2A/2B/2c/2dB|d3/2c/2Bd cBA3/2 z/
2 |B/2A/2B/2A/2GB A/2B/2A/2F/2G3/2 z/2 |
B/2A/2B/2A/2GA AddA|B/2A/2B/2A/2GB A/2B/2c/2B/2A3/2 z/2 |B/2A/2B/2A/2GA 
AddA|B/2A/2B/2A/2GB A/2B/2A/2F/2G3/2 z/2 |
B/2A/2G/2A/2B/2A/2G/2A/2 BBcA|A/2G/2F/2G/2A/2G/2F/2G/2 AABG|B/2A/2G/2A/2
B/2A/2G/2A/2 BBcA|c/2B/2c/2d/2ee d/2c/2B/2A/2G3/2 z/2 |
G3/2B/2dd eed3/2 z/2 |c/2B/2A/2c/2B/2A/2G/2B/2 A/2G/2F/2A/2BG|G3/2B/2dd 
eed3/2 z/2 |c/2B/2A/2c/2B/2A/2G/2B/2 AFG3/2|
